X:40
T:RVW2/2/40 The Farmer's Boy
C:Mr. Peacock, Ingrave, Essex, 18 April 1904
L:1/8
Q:1/4=100
M:4/4
I:linebreak $
K:G
"^(Editorial suggestion)  " D2 | G3 A B3 c | d2 (cA) G2 A2 | B2 d2 (dc) A2 | G6 g2 |$ (fd)ef g3 g | 
w: The|sun had set be-|hind yon * hill ac-|ross the drea- * ry|moor, When|wea- * ry and lame a|
f2 e2 d2 (cA) | G2 B2 (dc) A2 | G6 G2 |$ (GA)(Bc) d3 e | ff e2 d2 (cA) | G2 B2 d2 c2 | 
w: boy there came up *|to a far- * mer's|door. "Can|you * tell * me where|e- ver there be one *|that will me em-|
(B4 A2) gg |$ f2 d2 e3 f | g2 g2 f2 (dc) | B2 d2 (dc) A2 | G6 |] 
w: ploy * for to|plough and sow, to|reap and mow, and *|be a far- * mer's|boy?"|



